mono-glyphs/accessibility-w.svg

<svg xmlns="http://www.w3.org/2000/svg" width="1024" height="1024" fill="none" viewBox="0 0 1024 1024">
  <path fill="#fff" d="M960 256.5c0 11.333-1.75 22.417-5.25 33.25-3.5 10.833-8.417 20.833-14.75 30-6.333 9.167-13.917 17.25-22.75 24.25s-18.583 12.5-29.25 16.5l-184 70V584c0 1 2.333 8 7 21s10.583 29.25 17.75 48.75 15 40.833 23.5 64 16.667 45.333 24.5 66.5c7.833 21.167 14.667 39.917 20.5 56.25s9.75 27.333 11.75 33c2 6.333 3.667 12.667 5 19 1.333 6.333 2 12.833 2 19.5 0 15.667-2.917 30.25-8.75 43.75s-13.917 25.333-24.25 35.5c-10.333 10.17-22.333 18.17-36 24-13.667 5.83-28.167 8.75-43.5 8.75-11.667 0-22.917-1.75-33.75-5.25a113.93 113.93 0 0 1-30.25-15c-9.333-6.5-17.5-14.333-24.5-23.5S602.5 961 598.5 950L512 711.5 425 950c-4 11.333-9.5 21.5-16.5 30.5s-15.083 16.75-24.25 23.25-19.167 11.5-30 15c-10.833 3.5-22.25 5.25-34.25 5.25-15.333 0-29.833-2.92-43.5-8.75-13.667-5.83-25.583-13.83-35.75-24-10.167-10.167-18.167-22.083-24-35.75-5.833-13.667-8.75-28.167-8.75-43.5 0-6.667.667-13.167 2-19.5s3-12.667 5-19c1.333-4.333 3.917-11.667 7.75-22a7271.125 7271.125 0 0 0 13.5-36.75 10617.16 10617.16 0 0 1 17-46.25 16665.168 16665.168 0 0 0 18.5-50.25 29011.953 29011.953 0 0 1 18-49c5.833-15.833 11-29.917 15.5-42.25 4.5-12.333 8.083-22.333 10.75-30 2.667-7.667 4-11.833 4-12.5v-154l-184-70c-11-4-20.917-9.583-29.75-16.75-8.833-7.167-16.333-15.25-22.5-24.25-6.167-9-11-18.917-14.5-29.75C65.75 278.917 64 267.667 64 256c0-15.333 2.917-29.833 8.75-43.5 5.833-13.667 13.833-25.583 24-35.75 10.167-10.167 22-18.167 35.5-24 13.5-5.833 28.083-8.75 43.75-8.75 13.667 0 27 2.5 40 7.5L358.5 206c-2.333-8-4-16.167-5-24.5-1-8.333-1.5-16.667-1.5-25 0-21.667 4.333-42 13-61s20.333-35.583 35-49.75c14.667-14.167 31.667-25.333 51-33.5C470.333 4.083 490.667 0 512 0s41.667 4.083 61 12.25 36.333 19.333 51 33.5c14.667 14.167 26.333 30.75 35 49.75 8.667 19 13 39.333 13 61 0 8.333-.5 16.667-1.5 25-1 8.333-2.833 16.5-5.5 24.5l143-54.5c13-5 26.333-7.5 40-7.5 15.333 0 29.833 2.917 43.5 8.75 13.667 5.833 25.583 13.917 35.75 24.25 10.167 10.333 18.167 22.333 24 36 5.833 13.667 8.75 28.167 8.75 43.5ZM416 160c0 13 2.5 25.333 7.5 37 5 11.667 11.917 21.917 20.75 30.75 8.833 8.833 19.083 15.75 30.75 20.75 11.667 5 24 7.5 37 7.5s25.333-2.5 37-7.5c11.667-5 21.917-11.917 30.75-20.75 8.833-8.833 15.75-19.083 20.75-30.75 5-11.667 7.5-24 7.5-37s-2.5-25.333-7.5-37c-5-11.667-11.917-21.917-20.75-30.75-8.833-8.833-19.083-15.75-30.75-20.75-11.667-5-24-7.5-37-7.5s-25.333 2.5-37 7.5c-11.667 5-21.917 11.917-30.75 20.75-8.833 8.833-15.75 19.083-20.75 30.75-5 11.667-7.5 24-7.5 37Zm480 95.5c0-6.333-1.25-12.417-3.75-18.25s-6-10.917-10.5-15.25-9.667-7.75-15.5-10.25A45.863 45.863 0 0 0 848 208c-6 0-11.667 1-17 3L563 313c-8 3-16.333 5.333-25 7a137.36 137.36 0 0 1-26 2.5c-17 0-34.167-3.167-51.5-9.5L193 211c-5.667-2-11.333-3-17-3-13.667 0-25.083 4.583-34.25 13.75C132.583 230.917 128 242.333 128 256c0 10 2.75 19.083 8.25 27.25 5.5 8.167 13.083 14.083 22.75 17.75l204.5 77.5c6.333 2.333 11.333 6.25 15 11.75s5.5 11.583 5.5 18.25V590c0 4.333-.667 8-2 11L275 895.5c-2 5.667-3 11.167-3 16.5 0 13.333 4.667 24.667 14 34 9.333 9.333 20.667 14 34 14 10 0 19.083-2.833 27.25-8.5 8.167-5.667 14.083-13.333 17.75-23L452 690c4.667-13.333 12.25-23.75 22.75-31.25S497.667 647.5 512 647.5c14.333 0 26.75 3.75 37.25 11.25S567.333 676.667 572 690l87 238.5c3.667 9.667 9.5 17.333 17.5 23 8 5.667 17.167 8.5 27.5 8.5 13.333 0 24.667-4.667 34-14 9.333-9.333 14-20.667 14-34 0-5.333-1-10.833-3-16.5L642 601c-1.333-3-2-6.667-2-11V408.5c0-6.667 1.833-12.75 5.5-18.25s8.667-9.417 15-11.75L865 301c9.667-3.667 17.25-9.583 22.75-17.75S896 265.833 896 255.5Z"/>
</svg>

<svg width="1024" height="1024" viewBox="0 0 1024 1024" fill="none" xmlns="http://www.w3.org/2000/svg">
<path d="M960 256.5C960 267.833 958.25 278.917 954.75 289.75C951.25 300.583 946.333 310.583 940 319.75C933.667 328.917 926.083 337 917.25 344C908.417 351 898.667 356.5 888 360.5L704 430.5V584C704 585 706.333 592 711 605C715.667 618 721.583 634.25 728.75 653.75C735.917 673.25 743.75 694.583 752.25 717.75C760.75 740.917 768.917 763.083 776.75 784.25C784.583 805.417 791.417 824.167 797.25 840.5C803.083 856.833 807 867.833 809 873.5C811 879.833 812.667 886.167 814 892.5C815.333 898.833 816 905.333 816 912C816 927.667 813.083 942.25 807.25 955.75C801.417 969.25 793.333 981.083 783 991.25C772.667 1001.42 760.667 1009.42 747 1015.25C733.333 1021.08 718.833 1024 703.5 1024C691.833 1024 680.583 1022.25 669.75 1018.75C658.917 1015.25 648.833 1010.25 639.5 1003.75C630.167 997.25 622 989.417 615 980.25C608 971.083 602.5 961 598.5 950L512 711.5L425 950C421 961.333 415.5 971.5 408.5 980.5C401.5 989.5 393.417 997.25 384.25 1003.75C375.083 1010.25 365.083 1015.25 354.25 1018.75C343.417 1022.25 332 1024 320 1024C304.667 1024 290.167 1021.08 276.5 1015.25C262.833 1009.42 250.917 1001.42 240.75 991.25C230.583 981.083 222.583 969.167 216.75 955.5C210.917 941.833 208 927.333 208 912C208 905.333 208.667 898.833 210 892.5C211.333 886.167 213 879.833 215 873.5C216.333 869.167 218.917 861.833 222.75 851.5C226.583 841.167 231.083 828.917 236.25 814.75C241.417 800.583 247.083 785.167 253.25 768.5C259.417 751.833 265.583 735.083 271.75 718.25C277.917 701.417 283.917 685.083 289.75 669.25C295.583 653.417 300.75 639.333 305.25 627C309.75 614.667 313.333 604.667 316 597C318.667 589.333 320 585.167 320 584.5V430.5L136 360.5C125 356.5 115.083 350.917 106.25 343.75C97.4167 336.583 89.9167 328.5 83.75 319.5C77.5833 310.5 72.75 300.583 69.25 289.75C65.75 278.917 64 267.667 64 256C64 240.667 66.9167 226.167 72.75 212.5C78.5833 198.833 86.5833 186.917 96.75 176.75C106.917 166.583 118.75 158.583 132.25 152.75C145.75 146.917 160.333 144 176 144C189.667 144 203 146.5 216 151.5L358.5 206C356.167 198 354.5 189.833 353.5 181.5C352.5 173.167 352 164.833 352 156.5C352 134.833 356.333 114.5 365 95.5C373.667 76.5001 385.333 59.9167 400 45.75C414.667 31.5834 431.667 20.4167 451 12.25C470.333 4.08337 490.667 0 512 0C533.333 0 553.667 4.08337 573 12.25C592.333 20.4167 609.333 31.5834 624 45.75C638.667 59.9167 650.333 76.5001 659 95.5C667.667 114.5 672 134.833 672 156.5C672 164.833 671.5 173.167 670.5 181.5C669.5 189.833 667.667 198 665 206L808 151.5C821 146.5 834.333 144 848 144C863.333 144 877.833 146.917 891.5 152.75C905.167 158.583 917.083 166.667 927.25 177C937.417 187.333 945.417 199.333 951.25 213C957.083 226.667 960 241.167 960 256.5ZM416 160C416 173 418.5 185.333 423.5 197C428.5 208.667 435.417 218.917 444.25 227.75C453.083 236.583 463.333 243.5 475 248.5C486.667 253.5 499 256 512 256C525 256 537.333 253.5 549 248.5C560.667 243.5 570.917 236.583 579.75 227.75C588.583 218.917 595.5 208.667 600.5 197C605.5 185.333 608 173 608 160C608 147 605.5 134.667 600.5 123C595.5 111.333 588.583 101.083 579.75 92.25C570.917 83.4167 560.667 76.5001 549 71.5C537.333 66.5001 525 64.0001 512 64C499 64.0001 486.667 66.5001 475 71.5C463.333 76.5001 453.083 83.4167 444.25 92.25C435.417 101.083 428.5 111.333 423.5 123C418.5 134.667 416 147 416 160ZM896 255.5C896 249.167 894.75 243.083 892.25 237.25C889.75 231.417 886.25 226.333 881.75 222C877.25 217.667 872.083 214.25 866.25 211.75C860.417 209.25 854.333 208 848 208C842 208 836.333 209 831 211L563 313C555 316 546.667 318.333 538 320C529.333 321.667 520.667 322.5 512 322.5C495 322.5 477.833 319.333 460.5 313L193 211C187.333 209 181.667 208 176 208C162.333 208 150.917 212.583 141.75 221.75C132.583 230.917 128 242.333 128 256C128 266 130.75 275.083 136.25 283.25C141.75 291.417 149.333 297.333 159 301L363.5 378.5C369.833 380.833 374.833 384.75 378.5 390.25C382.167 395.75 384 401.833 384 408.5V590C384 594.333 383.333 598 382 601L275 895.5C273 901.167 272 906.667 272 912C272 925.333 276.667 936.667 286 946C295.333 955.333 306.667 960 320 960C330 960 339.083 957.167 347.25 951.5C355.417 945.833 361.333 938.167 365 928.5L452 690C456.667 676.667 464.25 666.25 474.75 658.75C485.25 651.25 497.667 647.5 512 647.5C526.333 647.5 538.75 651.25 549.25 658.75C559.75 666.25 567.333 676.667 572 690L659 928.5C662.667 938.167 668.5 945.833 676.5 951.5C684.5 957.167 693.667 960 704 960C717.333 960 728.667 955.333 738 946C747.333 936.667 752 925.333 752 912C752 906.667 751 901.167 749 895.5L642 601C640.667 598 640 594.333 640 590V408.5C640 401.833 641.833 395.75 645.5 390.25C649.167 384.75 654.167 380.833 660.5 378.5L865 301C874.667 297.333 882.25 291.417 887.75 283.25C893.25 275.083 896 265.833 896 255.5Z" fill="white"/>
</svg>
